dist/res/image/filter.svg

<svg width="95" height="25" viewBox="0 0 95 25" fill="none" xmlns="http://www.w3.org/2000/svg">
<path d="M11.6131 5.85156V7.10156H1.26157V5.85156H5.67563V3.89844H7.19907V5.85156H11.6131ZM2.25766 11.1445C2.24789 9.23047 3.92758 8.01953 6.43735 8C8.92758 8.01953 10.5975 9.23047 10.617 11.1445C10.5975 13.0293 8.92758 14.2598 6.43735 14.2695C3.92758 14.2598 2.24789 13.0293 2.25766 11.1445ZM3.42953 17.043V15.793H14.7967V21.3398H13.2733V17.043H3.42953ZM3.7225 11.1445C3.71274 12.2969 4.79672 13.0488 6.43735 13.0391C8.05844 13.0488 9.15219 12.2969 9.17172 11.1445C9.15219 9.96289 8.05844 9.20117 6.43735 9.19141C4.79672 9.20117 3.71274 9.96289 3.7225 11.1445ZM13.2733 14.8359V3.97656H14.7967V8.80078H17.4139V10.0898H14.7967V14.8359H13.2733ZM23.4634 7.43359C23.4732 9.35742 24.8111 11.3008 27.0377 12.1406L26.2369 13.3125C24.567 12.668 23.3658 11.4277 22.7408 9.93359C22.106 11.584 20.856 13.0586 19.147 13.8008L18.3072 12.6094C20.5923 11.6133 21.9888 9.36719 21.9986 7.43359V5.07031H23.4634V7.43359ZM21.4713 18.2148C21.4517 16.252 23.6783 15.0996 27.2916 15.1094C30.8853 15.0996 33.1216 16.252 33.1314 18.2148C33.1216 20.1582 30.8853 21.3008 27.2916 21.3008C23.6783 21.3008 21.4517 20.1582 21.4713 18.2148ZM22.9947 18.2148C22.9752 19.3965 24.6256 20.1191 27.2916 20.1094C29.9283 20.1191 31.5884 19.3965 31.608 18.2148C31.5884 17.0137 29.9283 16.291 27.2916 16.2812C24.6256 16.291 22.9752 17.0137 22.9947 18.2148ZM27.8189 14.1719V4.32812H29.2642V8.66406H31.5689V3.99609H33.0338V14.7188H31.5689V9.93359H29.2642V14.1719H27.8189ZM49.7473 3.97656V14.2695H48.2044V11.5352H44.1419V13.0195H36.1731V5.30469H44.1419V6.80859H48.2044V3.97656H49.7473ZM37.6966 11.7695H42.638V6.55469H37.6966V11.7695ZM38.1653 18.0586C38.1556 15.9688 40.3723 14.7676 43.9856 14.7773C47.5891 14.7676 49.8059 15.9688 49.8059 18.0586C49.8059 20.1289 47.5891 21.3008 43.9856 21.3008C40.3723 21.3008 38.1556 20.1289 38.1653 18.0586ZM39.6888 18.0586C39.679 19.3184 41.3196 20.0898 43.9856 20.0898C46.6419 20.0898 48.2825 19.3184 48.2825 18.0586C48.2825 16.75 46.6419 15.9883 43.9856 15.9688C41.3196 15.9883 39.679 16.75 39.6888 18.0586ZM44.1419 10.2461H48.2044V8.07812H44.1419V10.2461ZM61.1289 5.30469C61.1191 7.58008 64.2832 9.65039 67.3008 10.1094L66.6953 11.3203C64.0586 10.8711 61.4414 9.40625 60.3477 7.38477C59.2539 9.44531 56.627 10.8906 53.9805 11.3398L53.375 10.1289C56.4121 9.66016 59.5469 7.64844 59.5469 5.30469V4.42578H61.1289V5.30469ZM52.3984 14.0938V12.8242H68.2969V14.0938H61.2266V17.6484H59.7031V14.0938H52.3984ZM54.4297 20.9688V15.9492H55.9727V19.6797H66.5195V20.9688H54.4297Z" fill="#FB9EBC"/>
<path d="M83 5.75781L89 11.7578M83 5.75781L77 11.7578M83 5.75781V19.7578" stroke="#FB9EBC" stroke-width="2" stroke-linecap="round" stroke-linejoin="round"/>
</svg>

<svg xmlns="http://www.w3.org/2000/svg" width="95" height="25" fill="none"><path fill="#FB9EBC" d="M11.613 5.852v1.25H1.262v-1.25h4.414V3.898h1.523v1.954zm-9.355 5.293C2.248 9.23 3.928 8.02 6.438 8c2.49.02 4.16 1.23 4.179 3.145-.02 1.884-1.69 3.115-4.18 3.125-2.51-.01-4.19-1.24-4.18-3.125m1.172 5.898v-1.25h11.367v5.547h-1.524v-4.297zm.293-5.898c-.01 1.152 1.074 1.904 2.714 1.894 1.621.01 2.715-.742 2.735-1.894C9.152 9.963 8.058 9.2 6.437 9.19c-1.64.01-2.724.772-2.714 1.954m9.55 3.69V3.978h1.524V8.8h2.617v1.289h-2.617v4.746zm10.19-7.401c.01 1.923 1.348 3.867 3.575 4.707l-.801 1.172a6.14 6.14 0 0 1-3.496-3.38c-.635 1.651-1.885 3.126-3.594 3.868l-.84-1.192c2.285-.996 3.682-3.242 3.692-5.175V5.07h1.464zm-1.992 10.78c-.02-1.962 2.207-3.114 5.82-3.105 3.594-.01 5.83 1.143 5.84 3.106-.01 1.943-2.246 3.086-5.84 3.086-3.613 0-5.84-1.143-5.82-3.086m1.524 0c-.02 1.183 1.63 1.905 4.297 1.895 2.636.01 4.296-.713 4.316-1.894-.02-1.201-1.68-1.924-4.316-1.934-2.666.01-4.317.733-4.297 1.934m4.824-4.042V4.328h1.445v4.336h2.305V3.996h1.465V14.72h-1.465V9.934h-2.305v4.238zM49.747 3.977V14.27h-1.543v-2.735h-4.062v1.485h-7.969V5.305h7.969v1.504h4.062V3.977zm-12.05 7.793h4.941V6.555h-4.941zm.468 6.289c-.01-2.09 2.207-3.291 5.82-3.282 3.604-.01 5.82 1.192 5.82 3.282 0 2.07-2.216 3.242-5.82 3.242-3.613 0-5.83-1.172-5.82-3.242m1.524 0c-.01 1.26 1.63 2.03 4.297 2.03 2.656 0 4.297-.77 4.297-2.03 0-1.309-1.641-2.07-4.297-2.09-2.666.02-4.307.781-4.297 2.09m4.453-7.813h4.062V8.078h-4.062zm16.987-4.941c-.01 2.275 3.154 4.345 6.172 4.804l-.606 1.211c-2.636-.449-5.254-1.914-6.347-3.935-1.094 2.06-3.721 3.506-6.367 3.955l-.606-1.211c3.037-.469 6.172-2.48 6.172-4.824v-.88h1.582zm-8.73 8.789v-1.27h15.898v1.27h-7.07v3.554h-1.524v-3.554zm2.03 6.875v-5.02h1.544v3.73h10.546v1.29z"/><path stroke="#FB9EBC" stroke-linecap="round" stroke-linejoin="round" stroke-width="2" d="m83 5.758 6 6m-6-6-6 6m6-6v14"/></svg>
